X: 16587
T: Hand Me Down The Tackle
R: reel
M: 4/4
K: Dmajor
dD (3DDD FDFA|dfaf gfec|dD (3DDD FDFA|GFED CEAc|
dD (3DDD FDFA|dfaf gfeg|~f2 ec dAFD|CDEF GABc|
dD (3DDD FDFA|~d2fd gfec|dD (3DDD FDFA|GFEF GABc|
dD (3DDD FDFA|dfaf gfeg|~f2 ec dAFD|CDEF GABc||
d2fd (3dcd fd|(3dcd fd BABc|(3dcd fd Adfd|BGEF GABc|
(3dcd fd Adfd|cdef gaag|~f2ec dBAF|GFEF GABc|
(3dcd fd Adfd|(3dcd fd ~B3c|dcde fdAF|(3GFE FD B,DA,2|
~a3b afdf|gfef gbag|fged fdAF|GFEF GABc||

